X:2723
T:Castle Bray
R:Highland
C:Ed Reavy
M:4/4
L:1/8
Z:Joe Reavy
N:Ed didn't write many highlands, 
N:but the ones he wrote are
N:superb compositions.  And this 
N:is the best of those highlands
K:A
A2 (3Bcd edcA|A,B,=CE DB,=G,B,|A,2 (3B,=CD ED^CD|
EAce dB=GB|A2 (3Bcd edcA|A,B,=CE DB,=G,B,|
A,B,=CD EA^ce|dB=GB A2 Ad|ceac dcBA|GABa gedB|
ceac dcBA|GABd cAAB|ceac dcBA|GABc d2 fg|
(3aba (3gag (3fgf ec|dfec Aaga:||


